public/Chat.svg

<svg width="209" height="206" viewBox="0 0 209 206" fill="none" xmlns="http://www.w3.org/2000/svg">
<path d="M169.94 0.484375H79.3051C35.5808 0.484375 0 36.2468 0 80.1943C0 120.283 29.5959 153.555 67.9758 159.093V194.066C67.9758 198.669 70.7304 202.829 74.9683 204.585C79.1473 206.338 84.0491 205.398 87.3157 202.116L129.313 159.904H169.94C213.664 159.904 250 124.142 250 80.1943C250 36.2468 213.664 0.484375 169.94 0.484375ZM79.3051 91.58C73.0468 91.58 67.9758 86.4816 67.9758 80.1928C67.9758 73.9041 73.0468 68.8057 79.3051 68.8057C85.5619 68.8057 90.6344 73.9041 90.6344 80.1928C90.6344 86.4816 85.5619 91.58 79.3051 91.58ZM124.622 91.58C118.364 91.58 113.293 86.4816 113.293 80.1928C113.293 73.9041 118.364 68.8057 124.622 68.8057C130.879 68.8057 135.952 73.9041 135.952 80.1928C135.952 86.4816 130.879 91.58 124.622 91.58ZM169.94 91.58C163.681 91.58 158.61 86.4816 158.61 80.1928C158.61 73.9041 163.681 68.8057 169.94 68.8057C176.196 68.8057 181.269 73.9041 181.269 80.1928C181.269 86.4816 176.196 91.58 169.94 91.58Z" fill="#F79E1B"/>
</svg>

<svg xmlns="http://www.w3.org/2000/svg" width="209" height="206" fill="none"><path fill="#F79E1B" d="M169.94.484H79.305C35.581.484 0 36.247 0 80.194c0 40.089 29.596 73.361 67.976 78.899v34.973c0 4.603 2.754 8.763 6.992 10.519 4.18 1.753 9.081.813 12.348-2.469l41.997-42.212h40.627c43.724 0 80.06-35.762 80.06-79.71S213.664.484 169.94.484M79.305 91.58c-6.258 0-11.33-5.098-11.33-11.387s5.072-11.387 11.33-11.387c6.257 0 11.33 5.098 11.33 11.387S85.561 91.58 79.304 91.58m45.317 0c-6.258 0-11.329-5.098-11.329-11.387s5.071-11.387 11.329-11.387c6.257 0 11.33 5.098 11.33 11.387s-5.073 11.387-11.33 11.387m45.318 0c-6.259 0-11.33-5.098-11.33-11.387s5.071-11.387 11.33-11.387c6.256 0 11.329 5.098 11.329 11.387S176.196 91.58 169.94 91.58"/></svg>
